src/icons/svg/public-cloud.svg

<?xml version="1.0" encoding="UTF-8"?>
<svg width="40px" height="37px" viewBox="0 0 40 37" version="1.1" xmlns="http://www.w3.org/2000/svg"
>
    <path d="M29.0322581,14.1935484 C22.9677419,14.1935484 18.0645161,19.0967742 18.0645161,25.1612903 C18.0645161,31.2258065 22.9677419,36.1290323 29.0322581,36.1290323 C35.0967742,36.1290323 40,31.2258065 40,25.1612903 C40,19.0967742 35.0967742,14.1935484 29.0322581,14.1935484 Z M37.4193548,24.516129 L33.5483871,24.516129 C33.5483871,21.9354839 33.1612903,19.3548387 32.3870968,17.4193548 C35.0967742,18.7096774 37.1612903,21.2903226 37.4193548,24.516129 Z M29.0322581,33.5483871 C28.516129,33.2903226 27.3548387,31.2258065 27.0967742,27.0967742 L30.8387097,27.0967742 C30.5806452,31.2258065 29.5483871,33.2903226 29.0322581,33.5483871 Z M27.0967742,24.516129 C27.2258065,19.6129032 28.516129,17.0322581 28.9032258,16.7741935 C29.4193548,17.0322581 30.7096774,19.6129032 30.8387097,24.516129 L27.0967742,24.516129 Z M25.6774194,17.4193548 C24.9032258,19.3548387 24.6451613,21.9354839 24.516129,24.516129 L20.6451613,24.516129 C20.9032258,21.2903226 22.9677419,18.7096774 25.6774194,17.4193548 Z M20.9032258,27.0967742 L24.516129,27.0967742 C24.6451613,29.1612903 25.0322581,31.2258065 25.6774194,32.9032258 C23.3548387,31.8709677 21.5483871,29.6774194 20.9032258,27.0967742 Z M32.3870968,32.9032258 C33.0322581,31.2258065 33.4193548,29.2903226 33.5483871,27.0967742 L37.2903226,27.0967742 C36.516129,29.6774194 34.7096774,31.8709677 32.3870968,32.9032258 L32.3870968,32.9032258 Z"
          id="形状"></path>
    <path d="M33.2903226,10.3225806 C32.1290323,4.38709677 26.8387097,0 20.6451613,0 C14.4516129,0 9.16129032,4.38709677 8,10.4516129 C3.48387097,11.3548387 0,15.2258065 0,20 C0,25.2903226 4.38709677,29.6774194 9.67741935,29.6774194 L14.1935484,29.6774194 L14.1935484,27.0967742 L9.67741935,27.0967742 C5.80645161,27.0967742 2.58064516,23.8709677 2.58064516,20 C2.58064516,16.2580645 5.41935484,13.1612903 9.16129032,12.9032258 L10.3225806,12.9032258 L10.3225806,11.7419355 C10.9677419,6.58064516 15.3548387,2.58064516 20.6451613,2.58064516 C25.4193548,2.58064516 29.4193548,5.93548387 30.5806452,10.3225806 L33.2903226,10.3225806 Z"
          id="路径"></path>
</svg>

<svg width="40" height="37" xmlns="http://www.w3.org/2000/svg"><path d="M29.032 14.194A10.959 10.959 0 0 0 18.065 25.16 10.959 10.959 0 0 0 29.032 36.13 10.959 10.959 0 0 0 40 25.161a10.959 10.959 0 0 0-10.968-10.967zm8.387 10.322h-3.87c0-2.58-.388-5.161-1.162-7.097 2.71 1.29 4.774 3.871 5.032 7.097zm-8.387 9.032c-.516-.258-1.677-2.322-1.935-6.451h3.742c-.258 4.129-1.29 6.193-1.807 6.451zm-1.935-9.032c.129-4.903 1.42-7.484 1.806-7.742.516.258 1.807 2.839 1.936 7.742h-3.742zm-1.42-7.097c-.774 1.936-1.032 4.516-1.16 7.097h-3.872c.258-3.226 2.323-5.806 5.032-7.097zm-4.774 9.678h3.613c.13 2.064.516 4.129 1.161 5.806-2.322-1.032-4.129-3.226-4.774-5.806zm11.484 5.806c.645-1.677 1.032-3.613 1.161-5.806h3.742c-.774 2.58-2.58 4.774-4.903 5.806z"/><path d="M33.29 10.323C32.13 4.387 26.84 0 20.645 0A12.862 12.862 0 0 0 8 10.452c-4.516.903-8 4.774-8 9.548 0 5.29 4.387 9.677 9.677 9.677h4.517v-2.58H9.677c-3.87 0-7.096-3.226-7.096-7.097 0-3.742 2.838-6.839 6.58-7.097h1.162v-1.161c.645-5.161 5.032-9.161 10.322-9.161 4.774 0 8.774 3.354 9.936 7.742h2.71z"/></svg>
